icons/product-hunt-fill.svg

<svg viewBox="0 0 24 24" fill="currentColor" xmlns="http://www.w3.org/2000/svg">
    <path d="M12.001 22C6.47813 22 2.00098 17.5228 2.00098 12C2.00098 6.47715 6.47813 2 12.001 2C17.5238 2 22.001 6.47715 22.001 12C22.001 17.5228 17.5238 22 12.001 22ZM13.3345 12H10.501V9H13.3345C14.1629 9 14.8345 9.67157 14.8345 10.5C14.8345 11.3284 14.1629 12 13.3345 12ZM13.3345 7H8.50098V17H10.501V14H13.3345C15.2675 14 16.8345 12.433 16.8345 10.5C16.8345 8.567 15.2675 7 13.3345 7Z"/>
</svg>

<svg xmlns="http://www.w3.org/2000/svg" viewBox="0 0 24 24">
    <g>
        <path fill="none" d="M0 0h24v24H0z"/>
        <path d="M12 22C6.477 22 2 17.523 2 12S6.477 2 12 2s10 4.477 10 10-4.477 10-10 10zm1.334-10H10.5V9h2.834a1.5 1.5 0 0 1 0 3zm0-5H8.5v10h2v-3h2.834a3.5 3.5 0 0 0 0-7z"/>
    </g>
</svg>
